!! George Gerswhin, "Love is Sweeping the Country" from
!! "Bumper Book of George Gerswhin,"
!! London: Chappell Music Ltd., 1987; pp.226-229
**kern
*M2/4
*MM[Moderato]
=1
8cc
8b-
8a-
8g
=2
2b-
=3
8cc
8b-
8a
8g
=4
2b-
=5
8dd
8cc
8b-
8an
=6
8b-
8cc
8dd
8ee-
=7
2e-
=8
8r
8e-
8f
8g
=9
2b-
=10
8r
8B-
8c
8d
=11
[2g
!! page 227
=12
4g]
4r
=13
8cc
8b-
8a-
8g
=14
2b-
=15
8cc
8b-
8a-
8g
=16
2b-
=17
8dd
8cc
8b-
8an
=18
8b-
8cc
8dd
8ee-
=19
2e-
=20
8r
8e-
8f-
8g-
=21
2a-
=22
8r
8a-
8g
8a-
=23
2an
=24
8r
8an
8g#
8a
=25
4cc
8a-
[8b-
=26
8b-]
8g
4a-
=27
[2f
=28
4f]
4r
!! page 228
!! Refrain
=29
4b-
8B-
8c
=30
8c
8e-
4g
=31
8b-
[4.b-
=32
4.b-]
8r
=33
4b-
8B-
[8d-
=34
8d-]
8en
4g
=35
[2cc
=36
4.cc]
8r
=37
4dd
8b-
[8cc
=38
8cc]
4a-
8b-
=39
4g
8a-
[8f
=40
8f]
4g
8e-
=41
8f
8d
8e-
8c
=42
8d
4e-
[8c
=43
2c_
=44
4.c]
8r
=45
4b-
8B-
[8c
=46
8c]
8e-
4g
=47
8b-
[4.b-
=48
4.b-]
8r
=49
4ee-
8e-
[8f
!! page 229
=50
8f]
8a-
4cc
=51
[2dd
=52
4dd]
4ee-
=53
4e-
8e-
[8c
=54
8c]
8c
4d
=55
4en
8e
[8c
=56
8c]
8c
4d
=57
4e-
8e-
[8c
=58
8c]
8c
4d
=59
4en
8e
[8c
=60
8c]
8c
4d
=61
4e-
8f
[8g
=62
8g]
8b-
4cc
=63
8dd
[4.dd
=64
4.dd]
8cc
=65
8ee-
8ee-
4ee-
=66
8g-
4.g-
!! First ending
=67
[2e-
=68
4e-]
4r
!! page 228
!! Refrain
=29
4b-
8B-
8c
=30
8c
8e-
4g
=31
8b-
[4.b-
=32
4.b-]
8r
=33
4b-
8B-
[8d-
=34
8d-]
8en
4g
=35
[2cc
=36
4.cc]
8r
=37
4dd
8b-
[8cc
=38
8cc]
4a-
8b-
=39
4g
8a-
[8f
=40
8f]
4g
8e-
=41
8f
8d
8e-
8c
=42
8d
4e-
[8c
=43
2c_
=44
4.c]
8r
=45
4b-
8B-
[8c
=46
8c]
8e-
4g
=47
8b-
[4.b-
=48
4.b-]
8r
=49
4ee-
8e-
[8f
!! page 229
=50
8f]
8a-
4cc
=51
[2dd
=52
4dd]
4ee-
=53
4e-
8e-
[8c
=54
8c]
8c
4d
=55
4en
8e
[8c
=56
8c]
8c
4d
=57
4e-
8e-
[8c
=58
8c]
8c
4d
=59
4en
8e
[8c
=60
8c]
8c
4d
=61
4e-
8f
[8g
=62
8g]
8b-
4cc
=63
8dd
[4.dd
=64
4.dd]
8cc
=65
8ee-
8ee-
4ee-
=66
8g-
4.g-
!! Second ending
=67
[2e-
=68
4e-_
8e-]
8r
====
*-
